X:2
T:Dreidel Song
M:4/4
L:1/8
Q:1/8=200
K:C
%%MIDI program 1 71 % Clarinet
G|:CCDD E C2 E | GGFE D2 z D|
w:I have a lit-tle drei-del, I made it out of clay. And
w:It has a love-ly bo-dy, With leg so short and thin. And
w:My drei-del's al-ways play-ful, It loves to dance and spin. A
DDDE F D2 D|GFED C2 E2 |
w:when it's dry and read-y, Then drei-del I shall play. Oh
w:when it is all ti-red, It drops and then I win. Oh
w:hap-py game of drei-del, Come play now let's be-gin. Oh
GEGE G E2 E | GGFE D2 z D |
w:drei-del, drei-del, drei-del! I made it out of clay. Oh
w:drei-del, drei-del, drei-del! With leg so short and thin. Oh
w:drei-del, drei-del, drei-del! It loves to dance and spin. Oh
FDFD F D2 D |1,2 GFED C2 z G :||3 GGA[BG] [c4G4] ||
w:drei-del, drei-del, drei-del! Now drei-del I will play. It
w:drei-del, drei-del, drei-del! It drops and then I win. My
w:drei-del, drei-del, drei-del! Come ~ ~ ~ ~ ~ ~ play now let's be-gin.

